COLOR/action 16/16/dialog-filters.svg

<svg height="16" viewBox="0 0 16 16" width="16" xmlns="http://www.w3.org/2000/svg"><g transform="matrix(-1 0 0 1 16.542373 .677966)"><path d="m.94237296.6779653 7.60000004.0000001 7.6-.0000003-7.6 8.3999998z" fill="#666" stroke-width=".32705"/><rect fill="#929292" height="2" rx="1" width="16" x=".542373" y=".277999"/><path d="m10.542373 6.877965h-4v5.869566l4 1.774503z" fill="#b3b3b3"/><g transform="matrix(-1 0 0 1 16.542373 -.677966)"><path d="m.05078125 1.7050781c-.02147571.0817701-.05078125.1613068-.05078125.25 0 .554.446 1 1 1h.8476562l4.1523438 4.5898438v-.4882813h.0097656l-4.1621094-4.6015625h-.8476562c-.46530673 0-.83655189-.321014-.94921875-.75zm15.89843775 0c-.112667.428986-.483912.75-.949219.75h-.847656l-4.1621096 4.6015625h.0097656v.4882813l4.152344-4.5898438h.847656c.554 0 1-.446 1-1 0-.0886932-.029306-.1682299-.050781-.25zm-5.949219 11.2207029-4 1.773438v.5l4-1.773438z" opacity=".2"/><path d="m1 .95507812c-.554 0-1 .44599998-1 .99999998 0 .0886933.02930554.1682299.05078125.25.11266686-.4289859.48391202-.75.94921875-.75h14c.465307 0 .836552.3210141.949219.75.021475-.0817701.050781-.1613067.050781-.25 0-.554-.446-.99999997-1-.99999998zm5 7.08984378v.0117187h.0097656zm4 0-.0097656.0117187h.0097656z" fill="#fff" opacity=".3"/></g></g></svg>

<?xml version="1.0" encoding="UTF-8" standalone="no"?>
<svg
   xmlns:dc="http://purl.org/dc/elements/1.1/"
   xmlns:cc="http://creativecommons.org/ns#"
   xmlns:rdf="http://www.w3.org/1999/02/22-rdf-syntax-ns#"
   xmlns:svg="http://www.w3.org/2000/svg"
   xmlns="http://www.w3.org/2000/svg"
   xmlns:sodipodi="http://sodipodi.sourceforge.net/DTD/sodipodi-0.dtd"
   xmlns:inkscape="http://www.inkscape.org/namespaces/inkscape"
   height="16"
   viewBox="0 0 16 16"
   width="16"
   version="1.1"
   id="svg10"
   sodipodi:docname="dialog-filters.svg"
   inkscape:version="0.92.4 (5da689c313, 2019-01-14)">
  <metadata
     id="metadata16">
    <rdf:RDF>
      <cc:Work
         rdf:about="">
        <dc:format>image/svg+xml</dc:format>
        <dc:type
           rdf:resource="http://purl.org/dc/dcmitype/StillImage" />
      </cc:Work>
    </rdf:RDF>
  </metadata>
  <defs
     id="defs14" />
  <sodipodi:namedview
     pagecolor="#ffffff"
     bordercolor="#666666"
     borderopacity="1"
     objecttolerance="10"
     gridtolerance="10"
     guidetolerance="10"
     inkscape:pageopacity="0"
     inkscape:pageshadow="2"
     inkscape:window-width="1920"
     inkscape:window-height="1016"
     id="namedview12"
     showgrid="false"
     inkscape:zoom="41.7193"
     inkscape:cx="7.3459327"
     inkscape:cy="9.8975787"
     inkscape:window-x="0"
     inkscape:window-y="27"
     inkscape:window-maximized="1"
     inkscape:current-layer="g8" />
  <g
     transform="matrix(-1 0 0 1 16.542373 .677966)"
     id="g8">
    <path
       d="m.94237296.6779653 7.60000004.0000001 7.6-.0000003-7.6 8.3999998z"
       fill="#666"
       stroke-width=".32705"
       id="path2" />
    <rect
       fill="#929292"
       height="2"
       rx="1"
       width="16"
       x=".542373"
       y=".277999"
       id="rect4" />
    <path
       d="m10.542373 6.877965h-4v5.869566l4 1.774503z"
       fill="#b3b3b3"
       id="path6" />
    <path
       d="M 0.05078125 1.7050781 C 0.029305541 1.7868482 0 1.8663849 0 1.9550781 C 0 2.5090781 0.446 2.9550781 1 2.9550781 L 1.8476562 2.9550781 L 6 7.5449219 L 6 7.0566406 L 6.0097656 7.0566406 L 1.8476562 2.4550781 L 1 2.4550781 C 0.53469327 2.4550781 0.16344811 2.1340641 0.05078125 1.7050781 z M 15.949219 1.7050781 C 15.836552 2.1340641 15.465307 2.4550781 15 2.4550781 L 14.152344 2.4550781 L 9.9902344 7.0566406 L 10 7.0566406 L 10 7.5449219 L 14.152344 2.9550781 L 15 2.9550781 C 15.554 2.9550781 16 2.5090781 16 1.9550781 C 16 1.8663849 15.970694 1.7868482 15.949219 1.7050781 z M 10 12.925781 L 6 14.699219 L 6 15.199219 L 10 13.425781 L 10 12.925781 z "
       transform="matrix(-1,0,0,1,16.542373,-0.677966)"
       id="path823"
       style="opacity:0.2" />
    <path
       d="M 1 0.95507812 C 0.446 0.95507812 0 1.4010781 0 1.9550781 C 0 2.0437714 0.029305541 2.123308 0.05078125 2.2050781 C 0.16344811 1.7760922 0.53469327 1.4550781 1 1.4550781 L 15 1.4550781 C 15.465307 1.4550781 15.836552 1.7760922 15.949219 2.2050781 C 15.970694 2.123308 16 2.0437714 16 1.9550781 C 16 1.4010781 15.554 0.95507813 15 0.95507812 L 1 0.95507812 z M 6 8.0449219 L 6 8.0566406 L 6.0097656 8.0566406 L 6 8.0449219 z M 10 8.0449219 L 9.9902344 8.0566406 L 10 8.0566406 L 10 8.0449219 z "
       transform="matrix(-1,0,0,1,16.542373,-0.677966)"
       id="path832"
       style="fill:#ffffff;fill-opacity:1;opacity:0.3" />
  </g>
</svg>
